X:1
T:Title
%%score { 1 | 2 }
L:1/8
Q:1/4=100
M:2/4
K:A
V:1 treble nm="Grand Piano"
V:2 bass 
V:1
 [Ec]2 [CE][DF] | [CA]2 [CA][FB] | c2 AB | [CA]4 | [DF]2 [EG][EA] | [EB]2 [B,FB][B,FA] | %6
w: T.~E.~Perkins * *||||||
 [B,EG]2 [EG][A,^DF] | E4 | [A,CE]2 [A,DF][B,EG] | [A,EA]2 Bc | [Fd]2 dd | c4 | [FB]2 FG | %13
w: |||||||
 A A2 [FB] | c2 AB | [CA]4 | [Ec]2 [CA][DF] | [CE][A,EA] [DEG][CEA] | B^A Bc | B4 | %20
w: |||||||
 [Ec]2 [EB][EA] | [DF][FA] [Fd]2 | cA BG | [CA]4 |] %24
w: ||||
V:2
 [A,,A,]2 [A,,A,][A,,A,] | [A,,A,]2 [F,A,][D,A,] | [E,A,E]2 [E,CE][E,G,D] | [A,,A,]4 | %4
 [D,A,]2 [D,B,][C,A,] | [B,,G,]2 ^D,D, | E,G, B,B,, | G,2 z2 | A,,2 D,D, | C,2 [E,G,E][A,=G] | %10
 [D,A,]2 [F,A,D][G,B,E] | [A,E]4 | [D,A,]2 [D,A,D][E,D] | [F,A,C] [F,A,C]2 [D,A,] | %14
 [E,A,E]2 [E,CE][E,G,D] | [A,,A,]4 | [A,,A,]2 [A,,A,][A,,A,] | [A,,A,]C, B,,A,, | %18
 [E,G,E][E,=G,E] [E,^G,E][A,E] | [E,G,E]4 | [A,,A,]2 [B,,G,][C,A,] | [D,A,][D,A,] [D,A,]2 | %22
 [E,A,E][E,CE] [E,G,D][E,B,D] | [A,,A,]4 |] %24

